!!!COM: Bach, Johann Sebastian
!!!CDT: 1685/3//-1750/7/28/
!!!OTL@@DE: Ich dank' dir, lieber Herre
!!!AGN: 4-Part Chorale
!!!SCT: BH 272
!!!SCT: BWV 348
**harm	**root	**kern	**kern	**kern	**kern
!	!	!bass	!tenor	!alto	!soprno
*	*Iorgan	*Iorgan	*Iorgan	*Iorgan	*Iorgan
*M4/4	*M4/4	*M4/4	*M4/4	*M4/4	*M4/4
*met(c)	*met(c)	*met(c)	*met(c)	*met(c)	*met(c)
*MM60	*MM60	*MM60	*MM60	*MM60	*MM60
*k[b-e-a-d-g-]	*k[b-e-a-d-g-]	*k[b-e-a-d-g-]	*k[b-e-a-d-g-]	*k[b-e-a-d-g-]	*k[b-e-a-d-g-]
*D-:	*D-:	*D-:	*D-:	*D-:	*D-:
*>[A,B,B1,B,B2]	*>[A,B,B1,B,B2]	*>[A,B,B1,B,B2]	*>[A,B,B1,B,B2]	*>[A,B,B1,B,B2]	*>[A,B,B1,B,B2]
*>A	*>A	*>A	*>A	*>A	*>A
I	4BB-	8d-	4f	4a-	4dd-
.	.	8c	.	.	.
=1	=1	=1	=1	=1	=1
vi	4GG	4B-	8f	4b-	4dd-
.	.	.	8g-	.	.
V7b/IV	4BB-	4F	4a-	4cc-	4dd-
=!|:	=!|:	=!|:	=!|:	=!|:	=!|:
*>B	*>B	*>B	*>B	*>B	*>B
IV	4EE-	4G-	8g-	4b-	4dd-
.	.	.	8f	.	.
Vb/V	4CC	4G	4e-	4b-	4ee-
=2	=2	=2	=2	=2	=2
v	4FF	4A-	4e-	8b-	4cc-
.	.	.	.	4a-	.
V7/V	4CC	4E-	4d-	.	4b-
.	.	.	.	8g	.
V;	4FF;	4AA-;	4c;	4a-;	4a-;
Vb	4FF	4C	4e-	4a-	4ee-
=3	=3	=3	=3	=3	=3
I	4BB-	4D-	8d-	4a-	4ff
.	.	.	8c	.	.
V/V	4CC	4E-	4B-	4g	4ee-
IVb/V	4BB-	4F	4A-	4a-	4dd-
Vb/V	4CC	4G	4e-	[4e-	8cc
.	.	.	.	.	8b-
=4	=4	=4	=4	=4	=4
I/V	4FF	4A-	4e-	8e-]	4cc
.	.	.	.	4a-	.
V7/V	4CC	4E-	4d-	.	4b-
.	.	.	.	8g	.
I/V;	4FF;	4AA-;	4c;	4e-;	4a-;
*>B1	*>B1	*>B1	*>B1	*>B1	*>B1
IVb/V	4BB-	4F	4d-	4a-	4dd-
=1	=1	=1	=1	=1	=1
IV	4EE-	4G-	8d-	4b-	4dd-
.	.	.	8e-	.	.
I	4BB-	4D-	4f	4a-	4dd-
=:|!	=:|!	=:|!	=:|!	=:|!	=:|!
*>B2	*>B2	*>B2	*>B2	*>B2	*>B2
IVb/V	8BB-	4F	8f	8dd-	4aa-
iii7	8DD	.	8e-	8cc	.
=5	=5	=5	=5	=5	=5
IVb	4EE-	4B-	8d-	4b-	4gg-
.	.	.	8e-	.	.
I	4BB-	4d-	8f	8a-	4ff
.	.	.	8g-	8b-	.
V7d	4FF	4G-	4a-	4cc	4ee-
Vb/IV	4BB-	4F	4a-	8dd-	4dd-
.	.	.	.	8cc-	.
=6	=6	=6	=6	=6	=6
IV	4EE-	4G-	2d-	4b-	8dd-
.	.	.	.	.	8ee-
I	4BB-	4D-	.	4a-	4ff
V;	4FF;	4A-;	4c;	4a-;	4ee-;
viiob/ii	4BB	4F	4d	4a-	4ff
!!linebreak: 2
=7	=7	=7	=7	=7	=7
ii	4CC	4E-	4.e-	4g-	4gg-
viio7b/IV	8DD	8A-	.	8cc-	4ff
V/ii	8GG	8B-	8d	[8b-	.
vb	4FF	4c-	4e-	8b-]	4ee-
.	.	.	.	8a-	.
V/ii	4GG	4B-	4f	4b-	4dd
=8	=8	=8	=8	=8	=8
ii;	2.CC;	2.E-;	2.g-;	2.b-;	2.ee-;
V7d	4FF	4G-	4c	4e-	4a-
=9	=9	=9	=9	=9	=9
Ib	4BB-	4F	4d-	4a-	4dd-
ii	4CC	4E-	4G-	8b-	4ee-
.	.	.	.	8cc	.
I	4BB-	4D-	8A-	4dd-	4ff
.	.	.	8a-	.	.
-viiob/iii	4CC	4E-	[4g-	8cc	4gg-
.	.	.	.	8b-	.
=10	=10	=10	=10	=10	=10
iii	4DD	4F	8g-]	4a-	4aa-
.	.	.	8f	.	.
iib	8CC	4G-	8e-	4b-	8gg-
IV7	8EE-	.	8d-	.	8ff
V;	4FF;	4A-;	4a-;	4cc;	4ee-;
IVb	4EE-	4B-	4d-	4dd-	4gg-
=11	=11	=11	=11	=11	=11
V7c/IV	4BB-	4A-	[4d-	4cc-	4ff
iib	4CC	2G-	8d-]	4b-	4ee-
.	.	.	8e-	.	.
V7d	4FF	.	4c	4a-	4aa-
Ib	8BB-	8F	4d-	8a-	8dd-
ii7b	8CC	8G-	.	8b-	8ee-
=12	=12	=12	=12	=12	=12
Ic	4BB-	4A-	4d-	8a-	4ff
.	.	.	.	[8g-	.
V7	4FF	4AA-	4c	8g-]	4ee-
.	.	.	.	8f	.
I;	4BB-;	4D-;	4A-;	4f;	4dd-;
==	==	==	==	==	==
*-	*-	*-	*-	*-	*-
!!!ONB: m.10, b.4 changed from Ib to IVb
!!chor2scor: -l 2 -s 0.6 -o %b.pmx
!!!YEC: Copyright 1994, David Huron
!!!YEC: Changes/Additions 2001 by Craig Stuart Sapp
!!!YEN: United States of America
!!!SMA: 371 Bach Chorales, edited by Ludwig Erk, C.F. Peters
!!!PDT: 1850, 1865
!!!ONB: Harmony and Root analysis done manually
